X:46
T:Ladies of Newcastle
T:The Newcastle Country Dancers signature tune
C:David Ricker
O:Southern Faire
S:Lea Ann Thompson
Z:transcribed by C.McGrew (clark.mcgrew@sunysb.edu)
H:
   I learned this from Lea Ann and later from David.  This
   shouldn't be played for ECD demos' without asking since it
   really belongs to Newcastle, but it makes a great Contradance
   Jig.  I think Susi still remembers the dance so I should probably
   get the notes from her. -Clark
M:6/8
L:1/8
Q:3/8=120
K:G clef=treble
P: A
D [|: "G"GBd gfg  | dcB "D"ABc | "C"dgB cde | "G"dBG "D"AFD |
       "G"GBd gfg | "D"dcB ABc | "C"dgB cBA \
       |1 "Am"GEF "G"G2 D :|2 "Am"GEF "G"G2 B :|]
P:B
"D"AFD FAd | "G"BAG Bcd | "D"gab afd | "Am"cdB "D"AFD |
"Em"EFG "B"ABA | "G"GAB "C"cde | "D"dgB "C"cBA \
       |1 "Am"GEF "G"G2 B :|2 "Am"GEF "G"G2 D |]

